X:1
T:Title
%%score { ( 1 3 ) | ( 2 4 ) }
L:1/8
M:4/4
K:Bb
V:1 treble nm="Grand Piano"
V:3 treble 
V:2 bass 
V:4 bass 
V:1
 z4 z2[Q:1/4=94] [B,D]>[CE] | [DF]>[DF] [DF]>[EG] [DF]2 [FB]>c | d>c [GB]>[EG] [DF]2 [B,D]>[CE] | %3
 [DF]>[DF] [DB]>[DB] [Fd]2 [Fd]2 | [Fc]6 [B,D]>[CE] | [DF]>[DF] [DF]>[EG] [DF]2 [FB]>c | %6
 d>c [GB]>[EG] [DF]2 [DF]>[DF] | B>B B>B d2 c2 |[M:3/4] [DB]6 |[M:1/4] [B,D]>[CE] | %10
[M:4/4] [DF]6 z2 | [Fd]6 B>d | c>c c>c c>B A>G | F6[K:bass] z2 | B,>B, B,>B, B,2 [_Ac]>[Ad] | %15
[M:9/8] [Ge]6- [Ge] z z |[M:4/4] d>d d>d d2 B2 |[M:7/8] c- c3 [DB]3 |] %18
V:2
 z4 z2 [B,,F,]>[B,,F,] | [B,,B,]>[B,,B,] [B,,B,]>[B,,B,] [B,,B,]2 [D,B,]>[K:treble][F,A,F] | %2
 [B,F]>[B,F][K:bass] [E,B,]>[E,B,] [B,,B,]2 [B,,F,]>[B,,F,] | %3
 [B,,B,]>[B,,B,] [B,,B,]>[B,,B,] [B,,B,]2 [D,B,]2 | [F,A,]6 [B,,F,]>[B,,F,] | %5
 [B,,B,]>[B,,B,] [B,,B,]>[B,,B,] [B,,B,]2 [D,B,]>[K:treble][F,A,F] | %6
 [B,F]>[B,F][K:bass] [E,B,]>[E,B,] [B,,B,]2 [B,,B,]>[B,,B,] | %7
 [G,B,D]>[G,B,D] [G,C=E]>[G,CE] [F,B,F]2 [F,A,_E]2 |[M:3/4] [B,,B,]6 |[M:1/4] [B,,F,]>[B,,F,] | %10
[M:4/4] [B,,B,]>B,, B,,>B,, B,,2 B,,>[F,A,] | B,>B, B,>B, B,2[K:treble] [B,DF]>[B,F] | %12
 [F,A,F]>[F,A,F] [F,A,F]>[F,A,F] [F,A,F]>[B,DG] [CF]>[K:bass][C,B,C] | z4 .C2 z2 | %14
 B,,>B,, B,,>B,, B,,2 [B,,B,]>[B,,B,] |[M:9/8] [E,B,]>E,E,- E,/E,/ E,2- E,[E,B,]>[E,B,] | %16
[M:4/4] [F,B,F]>[F,B,F] [F,B,F]>[F,B,F] [F,B,F]2 [F,B,D]2 |[M:7/8] [F,A,E]- [F,A,E]3 [B,,B,]3 |] %18
V:3
 x8 | x8 | x8 | x8 | x8 | x8 | x8 | x8 |[M:3/4] x6 |[M:1/4] x2 | %10
[M:4/4] z z/ B,/ B,>B, B,2 [B,DB]>[Fc] | x8 | x8 | z2 C>D EC[K:bass] [F,B,D]>[F,CE] | [DF]6 z2 | %15
[M:9/8] z z/ B,/B,- B,/B,/ B,2- B,[Ge]>[Ge] |[M:4/4] x8 |[M:7/8] x7 |] %18
V:4
 x8 | x15/2[K:treble] x/ | x2[K:bass] x6 | x8 | x8 | x15/2[K:treble] x/ | x2[K:bass] x6 | x8 | %8
[M:3/4] x6 |[M:1/4] x2 |[M:4/4] x8 | x6[K:treble] x2 | x15/2[K:bass] x/ | %13
 [F,A,C]2 [F,A,]>[F,B,] F,-[F,A,] B,,>B,, | x8 |[M:9/8] x9 |[M:4/4] x8 |[M:7/8] x7 |] %18

